X: 1575
T: Fisher's Hornpipe (1st Setting)
C:(Collected from MacNamara)
M:C|
K:D
((3ABc)|dAFA GBAG|FADF GBAG|FAdf gfed|ce A2 A2 (Bc)|
dAFA GBAG|FADF GBAG|FAdA BGEC|D2 DD D2 :|
|:(cd)|edcd efge|fdde fgaf|edcB Agfe|dcBc A2 (dc)|
B>G (3.G.G.G BcdB|A>F (3.F.F.F ABcA|BcdA BGEC|D2 DD D2 :|


